X: 127
T: Like a Wolf I Roam
C: Teton Sioux band 1911-1914
N: Derived from sioux126.krn
O: South Dakota, U.S.A.
N: Teton Sioux Music by Frances Densmore, 1918
Z: transcribed to **kern format by Craig Sapp
L: 1/8
M: 3/4
Q: 1/4=58
K: E clef=bass
%%linebreak <none>
C C E [I:setbarnb 1]| 
E2C> C (C B,) | 
A,2F,> C C E | 
C> C B, C A, F, | 
E,2C,4 ||  
[M:2/4]A,4 | 
F, F, F, F, | 
E, E, E, E, ||  
[M:3/4]C,2C,3C, | 
C,2C,4 |]  



